static/icons/github.svg

<svg width="21" height="20" viewBox="0 0 21 20" fill="none" xmlns="http://www.w3.org/2000/svg">
<path d="M10.2529 0C4.58819 0 0 4.58819 0 10.2529C0 14.7899 2.9349 18.6219 7.01045 19.9804C7.52309 20.0701 7.71534 19.7625 7.71534 19.4934C7.71534 19.2499 7.70252 18.4425 7.70252 17.5838C5.12647 18.058 4.46003 16.9558 4.25497 16.3791C4.13962 16.0843 3.63979 15.1743 3.20404 14.9308C2.84519 14.7386 2.33254 14.2644 3.19123 14.2516C3.99865 14.2388 4.57537 14.9949 4.76762 15.3025C5.69038 16.8533 7.16424 16.4175 7.75378 16.1484C7.8435 15.4819 8.11264 15.0334 8.40741 14.777C6.12613 14.5207 3.74232 13.6364 3.74232 9.71466C3.74232 8.59965 4.13962 7.67689 4.79325 6.95918C4.69072 6.70286 4.33187 5.65193 4.89578 4.24215C4.89578 4.24215 5.75446 3.97301 7.71534 5.29308C8.53557 5.06239 9.40707 4.94704 10.2786 4.94704C11.1501 4.94704 12.0216 5.06239 12.8418 5.29308C14.8027 3.9602 15.6614 4.24215 15.6614 4.24215C16.2253 5.65193 15.8664 6.70286 15.7639 6.95918C16.4175 7.67689 16.8148 8.58684 16.8148 9.71466C16.8148 13.6492 14.4182 14.5207 12.1369 14.777C12.5086 15.0975 12.829 15.7126 12.829 16.6738C12.829 18.0452 12.8162 19.1474 12.8162 19.4934C12.8162 19.7625 13.0084 20.0829 13.5211 19.9804C15.5566 19.2935 17.3253 17.9854 18.5784 16.2403C19.8314 14.4953 20.5055 12.4012 20.5059 10.2529C20.5059 4.58819 15.9177 0 10.2529 0Z" fill="white"/>
</svg>

<svg xmlns="http://www.w3.org/2000/svg" width="21" height="20" fill="none" xmlns:v="https://vecta.io/nano"><path d="M10.253 0C4.588 0 0 4.588 0 10.253c0 4.537 2.935 8.369 7.01 9.728.513.09.705-.218.705-.487l-.013-1.91c-2.576.474-3.242-.628-3.448-1.205-.115-.295-.615-1.205-1.051-1.448-.359-.192-.872-.666-.013-.679.807-.013 1.384.743 1.576 1.051.923 1.551 2.397 1.115 2.986.846.09-.666.359-1.115.654-1.371-2.281-.256-4.665-1.141-4.665-5.062 0-1.115.397-2.038 1.051-2.755-.103-.256-.461-1.307.103-2.717 0 0 .859-.269 2.82 1.051.82-.231 1.692-.346 2.563-.346s1.743.115 2.563.346c1.961-1.333 2.82-1.051 2.82-1.051.564 1.41.205 2.461.102 2.717.654.718 1.051 1.628 1.051 2.755 0 3.935-2.397 4.806-4.678 5.062.372.321.692.936.692 1.897l-.013 2.82c0 .269.192.589.705.487a10.27 10.27 0 0 0 6.985-9.727C20.506 4.588 15.918 0 10.253 0z" fill="#fff"/></svg>
